assets/dude/We–Johnny.svg

<svg width="232" height="102" viewBox="0 0 232 102" fill="none" xmlns="http://www.w3.org/2000/svg">
<path d="M140.706 0.719971C131.746 0.719971 124.886 6.59997 122.226 14.58C121.526 16.54 121.526 16.96 121.246 16.96C120.966 16.96 120.966 16.54 120.266 14.58C117.606 6.59997 110.746 0.719971 101.786 0.719971C101.086 0.719971 100.526 1.27997 100.526 1.97997V34.74C100.526 35.44 101.086 36 101.786 36H117.186C117.746 36 118.026 36.28 118.026 36.56C118.026 36.98 117.606 37.82 117.606 37.82L106.826 61.9C106.126 63.3 105.566 63.72 104.866 63.72H92.4061C91.7061 63.72 91.1461 63.3 90.3061 61.76L79.6661 37.82C79.6661 37.82 79.2461 36.98 79.2461 36.56C79.2461 36.28 79.5261 36 80.0861 36H89.8861C90.5861 36 91.1461 35.44 91.1461 34.74V1.97997C91.1461 1.27997 90.5861 0.719971 89.8861 0.719971C80.9261 0.719971 74.7661 6.59997 72.1061 14.58C71.4061 16.54 71.4061 16.96 71.1261 16.96C70.8461 16.96 70.8461 16.54 70.1461 14.58C67.4861 6.59997 61.3261 0.719971 52.3661 0.719971C51.6661 0.719971 51.1061 1.27997 51.1061 1.97997V34.74C51.1061 35.44 51.6661 36 52.3661 36H64.2661C64.8261 36 65.1061 36.28 65.1061 36.56C65.1061 36.98 64.6861 37.82 64.6861 37.82L53.9061 61.9C53.2061 63.3 52.6461 63.72 51.9461 63.72H39.4861C38.7861 63.72 38.2261 63.3 37.3861 61.76L26.7461 37.82C26.7461 37.82 26.3261 36.98 26.3261 36.56C26.3261 36.28 26.6061 36 27.1661 36H40.4661C41.1661 36 41.7261 35.44 41.7261 34.74V1.97997C41.7261 1.27997 41.1661 0.719971 40.4661 0.719971C31.5061 0.719971 24.6461 6.59997 21.9861 14.58C21.2861 16.54 21.2861 16.96 21.0061 16.96C20.7261 16.96 20.7261 16.54 20.0261 14.58C17.3661 6.59997 10.5061 0.719971 1.54613 0.719971C0.846132 0.719971 0.286133 1.27997 0.286133 1.97997V34.74C0.286133 35.44 0.846132 36 1.54613 36H9.80613C10.5061 36 11.2061 36.56 11.7661 37.82L38.7861 98.86C39.0661 99.42 40.3261 101.52 43.2661 101.52C45.9261 101.52 47.3261 99.42 47.6061 98.86L68.1861 52.8C68.1861 52.8 68.8861 50.98 69.7261 50.98C70.5661 50.98 71.2661 52.8 71.2661 52.8L91.7061 98.86C91.9861 99.42 93.2461 101.52 96.1861 101.52C98.8461 101.52 100.246 99.42 100.526 98.86L127.686 37.82C128.246 36.56 128.946 36 129.646 36H140.706C141.406 36 141.966 35.44 141.966 34.74V1.97997C141.966 1.27997 141.406 0.719971 140.706 0.719971Z" fill="#FF1C31"/>
<path d="M230.272 0.719971C221.312 0.719971 213.752 6.59997 211.092 14.58C210.392 16.54 210.392 16.96 210.112 16.96C209.832 16.96 209.832 16.54 209.132 14.58C206.472 6.59997 198.912 0.719971 189.952 0.719971C180.992 0.719971 173.432 6.59997 170.772 14.58C170.072 16.54 170.072 16.96 169.792 16.96C169.512 16.96 169.512 16.54 168.812 14.58C166.152 6.59997 158.592 0.719971 149.632 0.719971C148.932 0.719971 148.372 1.27997 148.372 1.97997V34.74C148.372 35.44 148.932 36 149.632 36H163.492C164.192 36 164.752 36.56 164.752 37.26V62.46C164.752 63.16 164.192 63.72 163.492 63.72H149.632C148.932 63.72 148.372 64.28 148.372 64.98V97.74C148.372 98.44 148.932 99 149.632 99C158.592 99 166.152 93.26 168.812 85.14C169.512 83.18 169.512 82.76 169.792 82.76C170.072 82.76 170.072 83.18 170.772 85.14C173.432 93.26 180.992 99 189.952 99C198.912 99 206.472 93.26 209.132 85.14C209.832 83.18 209.832 82.76 210.112 82.76C210.392 82.76 210.392 83.18 211.092 85.14C213.752 93.26 221.312 99 230.272 99C230.972 99 231.532 98.44 231.532 97.74V57.84C231.532 57.14 230.972 56.58 230.272 56.58H222.992C222.292 56.58 221.732 57.14 221.732 57.84C221.732 61.34 218.932 63.72 215.432 63.72H176.092C175.392 63.72 174.832 63.16 174.832 62.46V54.9C174.832 54.2 175.392 53.64 176.092 53.64H187.852C188.552 53.64 189.112 54.2 189.112 54.9V56.16C189.112 56.86 189.672 57.42 190.372 57.42H209.272C209.972 57.42 210.532 56.86 210.532 56.16V43.56C210.532 42.86 209.972 42.3 209.272 42.3H190.372C189.672 42.3 189.112 42.86 189.112 43.56V44.82C189.112 45.52 188.552 46.08 187.852 46.08H176.092C175.392 46.08 174.832 45.52 174.832 44.82V37.26C174.832 36.56 175.392 36 176.092 36H215.432C218.932 36 221.732 38.38 221.732 41.88C221.732 42.58 222.292 43.14 222.992 43.14H230.272C230.972 43.14 231.532 42.58 231.532 41.88V1.97997C231.532 1.27997 230.972 0.719971 230.272 0.719971Z" fill="#FF1C31"/>
</svg>

<svg xmlns="http://www.w3.org/2000/svg" fill="none" viewBox="0 0 232 102"><path fill="#FF1C31" d="M140.706.72c-8.96 0-15.82 5.88-18.48 13.86-.7 1.96-.7 2.38-.98 2.38s-.28-.42-.98-2.38c-2.66-7.98-9.52-13.86-18.48-13.86-.7 0-1.26.56-1.26 1.26v32.76c0 .7.56 1.26 1.26 1.26h15.4c.56 0 .84.28.84.56 0 .42-.42 1.26-.42 1.26l-10.78 24.08c-.7 1.4-1.26 1.82-1.96 1.82h-12.46c-.7 0-1.26-.42-2.1-1.96l-10.64-23.94s-.42-.84-.42-1.26c0-.28.28-.56.84-.56h9.8c.7 0 1.26-.56 1.26-1.26V1.98c0-.7-.56-1.26-1.26-1.26-8.96 0-15.12 5.88-17.78 13.86-.7 1.96-.7 2.38-.98 2.38s-.28-.42-.98-2.38C67.486 6.6 61.326.72 52.366.72c-.7 0-1.26.56-1.26 1.26v32.76c0 .7.56 1.26 1.26 1.26h11.9c.56 0 .84.28.84.56 0 .42-.42 1.26-.42 1.26L53.906 61.9c-.7 1.4-1.26 1.82-1.96 1.82h-12.46c-.7 0-1.26-.42-2.1-1.96l-10.64-23.94s-.42-.84-.42-1.26c0-.28.28-.56.84-.56h13.3c.7 0 1.26-.56 1.26-1.26V1.98c0-.7-.56-1.26-1.26-1.26-8.96 0-15.82 5.88-18.48 13.86-.7 1.96-.7 2.38-.98 2.38s-.28-.42-.98-2.38C17.366 6.6 10.506.72 1.546.72c-.7 0-1.26.56-1.26 1.26v32.76c0 .7.56 1.26 1.26 1.26h8.26c.7 0 1.4.56 1.96 1.82l27.02 61.04c.28.56 1.54 2.66 4.48 2.66 2.66 0 4.06-2.1 4.34-2.66l20.58-46.06s.7-1.82 1.54-1.82c.84 0 1.54 1.82 1.54 1.82l20.44 46.06c.28.56 1.54 2.66 4.48 2.66 2.66 0 4.06-2.1 4.34-2.66l27.16-61.04c.56-1.26 1.26-1.82 1.96-1.82h11.06c.7 0 1.26-.56 1.26-1.26V1.98c0-.7-.56-1.26-1.26-1.26zM230.272.72c-8.96 0-16.52 5.88-19.18 13.86-.7 1.96-.7 2.38-.98 2.38s-.28-.42-.98-2.38C206.472 6.6 198.912.72 189.952.72c-8.96 0-16.52 5.88-19.18 13.86-.7 1.96-.7 2.38-.98 2.38s-.28-.42-.98-2.38C166.152 6.6 158.592.72 149.632.72c-.7 0-1.26.56-1.26 1.26v32.76c0 .7.56 1.26 1.26 1.26h13.86c.7 0 1.26.56 1.26 1.26v25.2c0 .7-.56 1.26-1.26 1.26h-13.86c-.7 0-1.26.56-1.26 1.26v32.76c0 .7.56 1.26 1.26 1.26 8.96 0 16.52-5.74 19.18-13.86.7-1.96.7-2.38.98-2.38s.28.42.98 2.38A20.097 20.097 0 0 0 189.952 99c8.96 0 16.52-5.74 19.18-13.86.7-1.96.7-2.38.98-2.38s.28.42.98 2.38A20.097 20.097 0 0 0 230.272 99c.7 0 1.26-.56 1.26-1.26v-39.9c0-.7-.56-1.26-1.26-1.26h-7.28c-.7 0-1.26.56-1.26 1.26 0 3.5-2.8 5.88-6.3 5.88h-39.34c-.7 0-1.26-.56-1.26-1.26V54.9c0-.7.56-1.26 1.26-1.26h11.76c.7 0 1.26.56 1.26 1.26v1.26c0 .7.56 1.26 1.26 1.26h18.9c.7 0 1.26-.56 1.26-1.26v-12.6c0-.7-.56-1.26-1.26-1.26h-18.9c-.7 0-1.26.56-1.26 1.26v1.26c0 .7-.56 1.26-1.26 1.26h-11.76c-.7 0-1.26-.56-1.26-1.26v-7.56c0-.7.56-1.26 1.26-1.26h39.34c3.5 0 6.3 2.38 6.3 5.88 0 .7.56 1.26 1.26 1.26h7.28c.7 0 1.26-.56 1.26-1.26V1.98c0-.7-.56-1.26-1.26-1.26z"/></svg>
